public/24.svg

<svg width="75" height="75" viewBox="0 0 75 75" xmlns="http://www.w3.org/2000/svg" xmlns:xlink="http://www.w3.org/1999/xlink">
    <path id="Rounded-Rectangle" fill="#ffffff" fill-rule="evenodd" stroke="none" d="M 10.25 0 C 4.58913 0 0 4.589127 0 10.25 L 0 56.75 C 0 62.41087 4.58913 67 10.25 67 L 64.75 67 C 70.410873 67 75 62.41087 75 56.75 L 75 10.25 C 75 4.589127 70.410873 0 64.75 0 Z"/>
    <path id="Path" fill="#585a5b" stroke="none" d="M 39.990002 11.880001 C 39.990002 11.790001 40.07 11.73 40.049999 11.619999 C 39.490002 8.900002 38.91 6.190002 38.400002 3.470001 C 38.310001 3 38.110001 2.980003 37.779999 3.029999 L 33.32 3.770004 C 32.040001 3.970001 30.76 4.150002 29.48 4.349998 C 28.200001 4.550003 26.809999 4.790001 25.48 5 C 24.48 5.160004 23.389999 5.349998 22.33 5.490005 C 21.02 5.660004 19.719999 5.919998 18.42 6.130005 C 17.119999 6.340004 15.86 6.5 14.59 6.709999 C 13.1 6.950005 11.59 7.209999 10.13 7.450005 L 5.94 8.110001 C 5.81 8.110001 5.72 8.110001 5.74 8.300003 C 5.731613 8.608871 5.69817 8.916542 5.64 9.220001 C 5.64 10.340004 5.51 11.459999 5.47 12.580002 C 5.39 14.389999 5.28 16.189999 5.18 17.989998 C 5.12 19.110001 5.04 20.23 4.99 21.349998 C 4.91 23.16 4.8 24.959999 4.7 26.760002 C 4.64 27.91 4.57 29.059998 4.51 30.209999 C 4.42 32 4.32 33.790001 4.23 35.57 C 4.17 36.700001 4.1 37.84 4.04 38.970001 C 3.98 40.099998 3.91 41.400002 3.85 42.610001 C 3.79 43.82 3.71 44.849998 3.66 45.970001 C 3.58 47.77 3.47 49.580002 3.37 51.380001 C 3.31 52.5 3.23 53.619999 3.19 54.740002 C 3.19 56.139999 3.03 57.540001 2.98 58.939999 C 2.98 59.330002 3.06 59.43 3.46 59.43 L 31.040001 59.43 C 31.209999 59.43 31.389999 59.48 31.530001 59.34 C 31.667664 59.23103 31.748556 59.065567 31.75 58.889999 C 32.25 56.130001 32.75 53.380001 33.219997 50.619999 C 33.282509 50.459194 33.282509 50.280804 33.219997 50.119999 C 32.895443 50.221333 32.559517 50.281799 32.219997 50.299999 L 15.22 50.299999 C 14.633483 50.307507 14.051606 50.195213 13.51 49.970001 C 12.836616 49.659763 12.376723 49.017433 12.3 48.279999 C 11.784361 45.859692 12.138445 43.335079 13.3 41.150002 C 14.063367 39.825203 15.083254 38.665932 16.299999 37.740002 C 18.277208 36.281563 20.359552 34.971325 22.530001 33.82 C 23.817207 33.119938 25.012939 32.263443 26.09 31.27 C 27.292828 30.169617 27.938766 28.587807 27.85 26.959999 C 27.828188 25.180504 26.586559 23.649162 24.85 23.260002 C 23.428066 22.831894 21.900158 22.924065 20.540001 23.52 C 19.468533 23.836433 18.761391 24.855553 18.84 25.970001 C 18.91 26.970001 18.84 26.970001 17.84 26.970001 L 13.97 26.970001 C 13.7 26.970001 13.59 26.970001 13.59 26.610001 L 13.59 23.5 C 13.646379 22.539291 14.027145 21.626156 14.67 20.91 C 16.149639 19.348873 18.104862 18.322029 20.23 17.989998 C 21.330248 17.728268 22.459278 17.6073 23.59 17.630001 C 25.17691 17.661774 26.742554 18.001396 28.200001 18.630001 C 29.895956 19.367355 31.331312 20.597164 32.32 22.16 C 33.002728 23.240295 33.43338 24.460487 33.579998 25.73 C 33.784283 27.189404 33.657833 28.676064 33.209999 30.080002 C 32.565567 31.940746 31.416016 33.585438 29.889999 34.830002 C 28.17626 36.208374 26.330647 37.414223 24.379999 38.43 C 23.067898 39.102093 21.801788 39.860424 20.59 40.700001 C 19.505611 41.346283 18.67602 42.345322 18.24 43.529999 C 17.809999 45.080002 18.24 45.279999 19.549999 45.310001 L 28.65 45.310001 C 29.610001 45.310001 29.860001 44.970001 29.879999 44.07 L 29.879999 42.66 C 29.879999 42.360001 29.969999 42.290001 30.25 42.299999 L 34.59 42.299999 L 34.66 42.25 C 34.781673 42.046268 34.853619 41.81673 34.869999 41.580002 C 35.209999 39.700001 35.540001 37.810001 35.869999 35.919998 L 38.529999 20.919998 L 40.040001 12.439999 C 40.091637 12.253433 40.073872 12.05447 39.990002 11.880001 Z M 25.99 11.419998 C 24.879999 11.57 23.780001 11.799999 22.67 11.959999 C 21.559999 12.119999 20.58 12.330002 19.52 12.43 C 18.619999 12.52 18.049999 11.959999 17.84 10.980003 C 17.699999 10.360001 18.48 9.440002 19.15 9.340004 L 24.76 8.489998 C 25.120001 8.43 25.48 8.349998 25.76 8.310005 C 26.641205 8.28318 27.396688 8.934464 27.5 9.810005 C 27.472525 10.65168 26.819164 11.339424 25.98 11.41 Z"/>
    <path id="path1" fill="#74c141" stroke="none" d="M 71.650002 62.419998 C 71.33667 57.646667 71.029999 52.869999 70.730003 48.09 C 70.43 43.27 70.150002 38.439999 69.849998 33.610001 C 69.459999 27.309998 69.050003 21.02 68.669998 14.720001 C 68.669998 14.32 68.5 14.25 68.150002 14.220001 C 66.439995 14.099998 64.739998 13.939999 63.040001 13.799999 L 53.610001 13 L 45.310001 12.290001 L 40.009998 11.869999 C 40.019432 12.009842 40.019432 12.150158 40.009998 12.290001 C 39.549999 14.790001 39.119999 17.290001 38.68 19.790001 C 38.240002 22.290001 37.73 25.059998 37.27 27.700001 C 36.810001 30.34 36.27 32.75 35.880001 35.279999 C 35.48 37.630001 35.080002 39.98 34.629997 42.279999 C 34.513577 42.426952 34.440807 42.603676 34.419998 42.790001 C 34.02 44.990002 33.639999 47.18 33.23 49.380001 C 33.157619 49.590622 33.157619 49.819378 33.23 50.029999 C 33 51.400002 32.779999 52.779999 32.540001 54.150002 C 32.239998 55.860001 31.92 57.560001 31.610001 59.27 C 31.43 60.34 31.280001 61.41 31.040001 62.459999 C 30.93 62.959999 31.120001 62.939999 31.49 62.939999 L 71.18 62.939999 C 71.620003 63 71.68 62.880001 71.650002 62.419998 Z M 51.310001 15.73 C 52.380001 15.73 53.439999 15.849998 54.5 15.91 L 57.830002 16.110001 C 58.702 16.162945 59.381607 16.886395 59.380001 17.760002 C 59.369118 18.620911 58.670959 19.314621 57.810001 19.32 C 56.34 19.32 54.869999 19.18 53.389999 19.099998 L 51.139999 18.959999 C 50.563107 18.933716 50.044346 18.600838 49.780071 18.08736 C 49.515797 17.573887 49.546387 16.958271 49.860264 16.473526 C 50.174137 15.988777 50.723343 15.708969 51.299999 15.739998 Z M 64.919998 49.880001 C 64.919998 50.169998 64.839996 50.25 64.549995 50.25 L 60.400002 50.25 C 60.049999 50.25 59.959999 50.34 59.959999 50.689999 L 59.959999 57.900002 C 59.959999 58.27 59.860001 58.360001 59.5 58.360001 L 54.5 58.360001 C 54.139999 58.360001 54.060001 58.259998 54.060001 57.91 L 54.060001 50.84 C 54.060001 50.389999 53.98 50.240002 53.48 50.240002 L 40.189999 50.240002 C 39.779999 50.240002 39.650002 50.150002 39.669998 49.73 C 39.716805 48.994076 39.716805 48.255924 39.669998 47.52 C 39.630833 46.879593 39.818478 46.24585 40.200001 45.73 C 44.406666 39.349998 48.603333 32.963333 52.790001 26.57 C 52.925323 26.306625 53.20462 26.149273 53.5 26.169998 L 59.580002 26.169998 C 59.939999 26.169998 60.029999 26.27 60.02 26.620003 L 60.02 44.77 C 60.02 45.139999 60.110001 45.25 60.490002 45.240002 L 64.540001 45.240002 C 64.849998 45.240002 64.939995 45.330002 64.939995 45.639999 C 64.91333 47.073334 64.906662 48.486668 64.919998 49.880001 Z"/>
    <path id="path2" fill="#74c141" stroke="none" d="M 54.400002 32.82 C 54.34 33.620003 54.25 34.350002 54.220001 35.07 C 54.119999 38.27 54.220001 41.48 54.220001 44.68 C 54.220001 45.189999 54.060001 45.279999 53.59 45.279999 C 51.130001 45.279999 48.66 45.200001 46.200001 45.360001 L 45.959999 45.360001 C 48.889999 41.279999 51.73 37.16 54.400002 32.82 Z"/>
</svg>

<svg width="75" height="75" viewBox="0 0 75 75" xmlns="http://www.w3.org/2000/svg"><path fill="#fff" fill-rule="evenodd" d="M10.25 0C4.59 0 0 4.59 0 10.25v46.5C0 62.41 4.59 67 10.25 67h54.5C70.41 67 75 62.41 75 56.75v-46.5C75 4.59 70.41 0 64.75 0Z"/><path fill="#585a5b" d="M39.99 11.88c0-.09.08-.15.06-.26-.56-2.72-1.14-5.43-1.65-8.15-.09-.47-.29-.49-.62-.44l-4.46.74c-1.28.2-2.56.38-3.84.58-1.28.2-2.67.44-4 .65-1 .16-2.09.35-3.15.49-1.31.17-2.61.43-3.91.64-1.3.21-2.56.37-3.83.58-1.49.24-3 .5-4.46.74l-4.19.66c-.13 0-.22 0-.2.19a5.71 5.71 0 0 1-.1.92c0 1.12-.13 2.24-.17 3.36-.08 1.81-.19 3.61-.29 5.41-.06 1.12-.14 2.24-.19 3.36-.08 1.81-.19 3.61-.29 5.41-.06 1.15-.13 2.3-.19 3.45-.09 1.79-.19 3.58-.28 5.36-.06 1.13-.13 2.27-.19 3.4s-.13 2.43-.19 3.64-.14 2.24-.19 3.36c-.08 1.8-.19 3.61-.29 5.41-.06 1.12-.14 2.24-.18 3.36 0 1.4-.16 2.8-.21 4.2 0 .39.08.49.48.49h27.58c.17 0 .35.05.49-.09a.58.58 0 0 0 .22-.45c.5-2.76 1-5.51 1.47-8.27a.69.69 0 0 0 0-.5 4.09 4.09 0 0 1-1 .18h-17a4.31 4.31 0 0 1-1.71-.33 2.1 2.1 0 0 1-1.21-1.69 10.52 10.52 0 0 1 1-7.13 11.5 11.5 0 0 1 3-3.41 49.84 49.84 0 0 1 6.23-3.92 17.78 17.78 0 0 0 3.56-2.55 5.44 5.44 0 0 0 1.76-4.31 3.84 3.84 0 0 0-3-3.7 6.25 6.25 0 0 0-4.31.26 2.38 2.38 0 0 0-1.7 2.45c.07 1 0 1-1 1h-3.87c-.27 0-.38 0-.38-.36V23.5a4.25 4.25 0 0 1 1.08-2.59 9.73 9.73 0 0 1 5.56-2.92 13.36 13.36 0 0 1 3.36-.36 12.26 12.26 0 0 1 4.61 1 9.23 9.23 0 0 1 4.12 3.53 8.51 8.51 0 0 1 1.26 3.57 9.83 9.83 0 0 1-.37 4.35 10.61 10.61 0 0 1-3.32 4.75 33.42 33.42 0 0 1-5.51 3.6 33.36 33.36 0 0 0-3.79 2.27 5.51 5.51 0 0 0-2.35 2.83c-.43 1.55 0 1.75 1.31 1.78h9.1c.96 0 1.21-.34 1.23-1.24v-1.41c0-.3.09-.37.37-.36h4.34l.07-.05a1.51 1.51 0 0 0 .21-.67c.34-1.88.67-3.77 1-5.66l2.66-15 1.51-8.48a.8.8 0 0 0-.05-.56Zm-14-.46c-1.11.15-2.21.38-3.32.54-1.11.16-2.09.37-3.15.47-.9.09-1.47-.47-1.68-1.45-.14-.62.64-1.54 1.31-1.64l5.61-.85c.36-.06.72-.14 1-.18a1.7 1.7 0 0 1 1.74 1.5 1.66 1.66 0 0 1-1.52 1.6Z"/><path fill="#74c141" d="M71.65 62.42c-.313-4.773-.62-9.55-.92-14.33-.3-4.82-.58-9.65-.88-14.48-.39-6.3-.8-12.59-1.18-18.89 0-.4-.17-.47-.52-.5-1.71-.12-3.41-.28-5.11-.42l-9.43-.8-8.3-.71-5.3-.42c.01.14.01.28 0 .42-.46 2.5-.89 5-1.33 7.5-.44 2.5-.95 5.27-1.41 7.91-.46 2.64-1 5.05-1.39 7.58-.4 2.35-.8 4.7-1.25 7a1 1 0 0 0-.21.51c-.4 2.2-.78 4.39-1.19 6.59a1 1 0 0 0 0 .65c-.23 1.37-.45 2.75-.69 4.12-.3 1.71-.62 3.41-.93 5.12-.18 1.07-.33 2.14-.57 3.19-.11.5.08.48.45.48h39.69c.44.06.5-.06.47-.52ZM51.31 15.73c1.07 0 2.13.12 3.19.18l3.33.2a1.65 1.65 0 0 1 1.55 1.65 1.58 1.58 0 0 1-1.57 1.56c-1.47 0-2.94-.14-4.42-.22l-2.25-.14a1.612 1.612 0 1 1 .16-3.22Zm13.61 34.15c0 .29-.08.37-.37.37H60.4c-.35 0-.44.09-.44.44v7.21c0 .37-.1.46-.46.46h-5c-.36 0-.44-.1-.44-.45v-7.07c0-.45-.08-.6-.58-.6H40.19c-.41 0-.54-.09-.52-.51.047-.736.047-1.474 0-2.21a2.73 2.73 0 0 1 .53-1.79c4.207-6.38 8.403-12.767 12.59-19.16a.74.74 0 0 1 .71-.4h6.08c.36 0 .45.1.44.45v18.15c0 .37.09.48.47.47h4.05c.31 0 .4.09.4.4a150.525 150.525 0 0 0-.02 4.24Z"/><path fill="#74c141" d="M54.4 32.82c-.06.8-.15 1.53-.18 2.25-.1 3.2 0 6.41 0 9.61 0 .51-.16.6-.63.6-2.46 0-4.93-.08-7.39.08h-.24c2.93-4.08 5.77-8.2 8.44-12.54Z"/></svg>
